Origami/22x22/apps/desktop-environment-unity.svg

<svg width="22" height="22" version="1" xmlns="http://www.w3.org/2000/svg">
 <circle cx="11" cy="11.5" r="10" style="opacity:.2"/>
 <circle cx="11" cy="11" r="10" style="fill:#a43b84"/>
 <path d="m7 6.5v6s0 4 3 4h5v-10h-2v8h-2.5c-1.5 0-1.5-2-1.5-2v-6z" style="opacity:.2"/>
 <path d="m7 6v6s0 4 3 4h5v-10h-2v8h-2.5c-1.5 0-1.5-2-1.5-2v-6z" style="fill:#ffffff"/>
 <path d="M 11,1 A 10,10 0 0 0 1,11 10,10 0 0 0 1,11.293 10,10 0 0 1 11,1.5 10,10 0 0 1 21,11.207 10,10 0 0 0 21,11 10,10 0 0 0 11,1 Z" style="fill:#ffffff;opacity:.1"/>
</svg>

<svg xmlns="http://www.w3.org/2000/svg" width="22" height="22" version="1">
 <circle style="opacity:0.2" cx="11" cy="11.5" r="10"/>
 <circle style="fill:#a43b84" cx="11" cy="11" r="10"/>
 <path style="opacity:0.2" d="M 7,6.5 V 12.5 C 7,12.5 7,16.5 10,16.5 H 15 V 6.5 H 13 V 14.5 H 10.5 C 9,14.5 9,12.5 9,12.5 V 6.5 Z"/>
 <path style="fill:#ffffff" d="M 7,6 V 12 C 7,12 7,16 10,16 H 15 V 6 H 13 V 14 H 10.5 C 9,14 9,12 9,12 V 6 Z"/>
 <path style="opacity:0.1;fill:#ffffff" d="M 11,1 A 10,10 0 0 0 1,11 10,10 0 0 0 1,11.293 10,10 0 0 1 11,1.5 10,10 0 0 1 21,11.207 10,10 0 0 0 21,11 10,10 0 0 0 11,1 Z"/>
</svg>
